Suru++-Ubuntu/apps/symbolic/vscodium-symbolic.svg

<svg width="16.015" height="16.079" version="1.1" xmlns="http://www.w3.org/2000/svg">
 <path d="m8.2034999 15.554319c-0.383486-0.125102-0.5248252-0.399798-0.7476208-1.453606-0.1256315-0.59418-0.3829795-0.926627-0.8653984-1.117795-0.2829354-0.112252-0.4232655-0.131906-1.4599672-0.204473-0.9338116-0.06576-1.3707477-0.299716-1.67537-0.8976-0.1190174-0.233575-0.211351-0.539981-0.342463-1.136541-0.16611-0.7558305-0.319597-1.1446305-0.645846-1.6363092-0.202242-0.3046299-0.659652-0.7664126-0.983142-0.9922394-0.308371-0.215433-0.382824-0.2823307-0.441173-0.3965858-0.0748-0.1466456-0.05053-0.2845984 0.06981-0.3968882 0.242835-0.2263937 0.587671-0.1557165 0.843099 0.1727244 0.04362 0.055937 0.150237 0.2294174 0.236939 0.3852851 0.158249 0.2842204 0.329159 0.5311748 0.367861 0.5311748 0.01172 0 0.02079-0.4028977 0.02079-0.9096189 0-0.9759496 0.0053-1.0248189 0.120794-1.1057008 0.09037-0.063496 0.219213-0.049512 0.313966 0.034016 0.161537 0.1417323 0.179149 0.2460472 0.3688058 2.1822236 0.040441 0.4128377 0.031748 0.3983622 0.1551874 0.2626771 0.1181862-0.1300159 0.2489201-0.38846 0.2940476-0.5814805 0.043162-0.1844409 0.033638-0.4745575-0.023055-0.7082079-0.058318-0.239622-0.061191-0.3333543-0.013228-0.4341921 0.098419-0.207496 0.3723969-0.2022047 0.5192807 0.011339 0.1000063 0.144378 0.1363653 0.2762835 0.1478551 0.5371465 0.015496 0.3507401-0.036661 0.5975811-0.2901543 1.3745763-0.273789 0.8390551-0.3049701 0.974098-0.3052725 1.322003-2.192e-4 0.218457 0.010583 0.306142 0.054803 0.448516 0.223748 0.719774 0.9034885 1.160466 1.9857713 1.287383 0.3075023 0.0378 0.4486752 0.04309 0.4486752 0.02268 0-0.0076-0.053631-0.107338-0.1191685-0.223748-0.401187-0.71165-0.5676638-1.244148-0.5347593-1.710466 0.0192756-0.2706141 0.0707528-0.4593259 0.2590111-0.9455243 0.2883779-0.7448693 0.3314267-0.9266267 0.3325984-1.4046236 0.0024567-1.020926-0.5228334-1.986633-1.360422-2.5008755-0.0938835-0.0574489-0.3725481-0.1961575-0.6192681-0.3080315-0.5118538-0.2316851-0.7457952-0.3737953-0.9319559-0.5660221-0.221594-0.2286614-0.354595-0.5140913-0.354595-0.7605543 0-0.1114961 0.04819-0.1405984 0.259162-0.1557165 0.3848768-0.026457 0.719297 0.1466456 1.2955955 0.6750992 0.363704 0.3333543 0.5324183 0.4606866 0.7440605 0.5611842 0.1999748 0.094866 0.4947326 0.152315 0.5415307 0.1058268 0.01663-0.015118 0.027969-0.1016693 0.027969-0.2101417 0-0.2502048-0.089839-0.4347213-0.3142677-0.6447874-0.1505013-0.1409764-0.2588603-0.2116536-0.7218638-0.4708536-0.4714545-0.2641889-0.7093682-0.6356031-0.6495042-1.0143118 0.03515-0.22337 0.1901102-0.3775748 0.4150903-0.4135559 0.6270123-0.1001574 1.5733455 0.9673323 1.9997783 2.256 0.2251086 0.6802394 0.3052346 1.2148913 0.3060283 2.0420031 7.257e-4 0.7653921-0.062967 1.3390866-0.2595023 2.3370709-0.078652 0.399496-0.103937 0.5780409-0.09566 0.6757417 0.03137 0.368126 0.2445732 0.4651086 0.554109 0.2520945 0.3675591-0.2528504 0.7293733-0.7158425 0.878264-1.1238047 0.118526-0.3246615 0.1461165-0.5144315 0.1637669-1.1260347 0.01474-0.5106141 0.021165-0.5759244 0.065802-0.6610015 0.063383-0.1209449 0.1455874-0.1972914 0.252737-0.2339528 0.1205291-0.041575 0.2187969-0.018898 0.3060662 0.067654 0.1947212 0.1946457 0.1787338 0.5480315-0.068674 1.5154016-0.1466456 0.5734677-0.3668409 1.0749354-0.6243099 1.421896-0.073474 0.099024-0.2958992 0.3341103-0.4942979 0.5222929-0.4249361 0.403238-0.5606438 0.566249-0.680674 0.817626-0.085833 0.179905-0.088668 0.19389-0.088668 0.445342 0 0.239622 0.00491 0.267968 0.063609 0.367748 0.2658142 0.452144 0.9439937 0.573052 1.4376227 0.256252 0.5539887-0.355654 1.023217-1.650142 1.2272737-3.3861931 0.1446425-1.230652 0.048756-2.0846362-0.3207685-2.8564157-0.2512635-0.5247879-0.5810802-0.8911375-1.1990594-1.3317926-0.2051527-0.1462677-0.4407004-0.3235276-0.5234645-0.3936-0.1937386-0.1644095-0.4108649-0.4532788-0.496611-0.6608126-0.05828-0.1409764-0.067691-0.1957795-0.069052-0.3994205l-0.00154-0.2362205 0.1053355-0.052913c0.2733354-0.1379528 0.6832705 0.00314 1.0159974 0.3492283 0.071395 0.074457 0.2194016 0.2823307 0.3288567 0.4623496 0.3263622 0.5366929 0.5185663 0.7710236 0.7164813 0.8735622l0.06565 0.034016-0.1045418-0.207496c-0.057488-0.1141423-0.2944646-0.5740353-0.5265805-1.0219849-0.5750929-1.1098204-0.5975207-1.1637921-0.5977588-1.437959-2.192e-4 -0.2698582 0.1659969-0.4505952 0.414652-0.4505952 0.2245039 0 0.426119 0.1576063 0.5550085 0.4338141 0.037039 0.07937 0.1961575 0.5907024 0.3534236 1.1360504 0.1573039 0.5453102 0.3581102 1.2408567 0.4462488 1.5456378l0.160252 0.5541543 0.0709419-0.1409764c0.165241-0.3284409 0.291137-0.7988787 0.337776-1.2623622 0.04543-0.4516157-9.1e-4 -0.8689134-0.176995-1.5934488-0.132095-0.5435716-0.140863-0.6078236-0.107792-0.7902992 0.070979-0.39140778 0.308561-0.60876838 0.639489-0.58507078 0.410445 0.030236 0.716552 0.3613228 0.775717 0.84154958 0.05684 0.4614047-0.05352 0.9476031-0.488216 2.1508913-0.389091 1.0769763-0.506238 1.4477858-0.592918 1.8767621-0.1457 0.7210583-0.123968 1.4108977 0.06127 1.9447181l0.04407 0.1269921 0.266722-0.7525795c0.146683-0.4139338 0.294274-0.8091212 0.327987-0.8782488 0.126614-0.2596535 0.340233-0.3076535 0.518725-0.1164094 0.08655 0.092598 0.104202 0.1938897 0.06248 0.3582992-0.128504 0.5059653-0.793308 2.4126236-1.8599022 5.3341611-0.5019817 1.375029-0.5065587 1.38924-0.4205782 1.307754 0.047811-0.04535 0.7455494-0.682129 1.5505474-1.415169 0.804994-0.733001 1.523456-1.398954 1.596582-1.4798359 0.218306-0.2415118 0.350589-0.5369953 0.350287-0.7825512-3.44e-4 -0.2804409-0.126425-0.6109984-0.44262-1.1600504-0.388332-0.6743055-0.491449-1.0248945-0.39701-1.3497448 0.06561-0.2256378 0.269783-0.3948851 0.474414-0.3931843 0.08557 6.047e-4 0.235125 0.084661 0.317443 0.1783937 0.102841 0.1171654 0.300888 0.5354079 0.412547 0.8712945 0.08852 0.2664567 0.202507 0.7754078 0.202507 0.9045543 0 0.039685 0.0083 0.07748 0.01814 0.083528 0.01021 0.00756 0.184933-0.3197481 0.388744-0.7245355 0.391789-0.7779779 0.484754-0.9189165 0.662872-1.0051653 0.267288-0.1292598 0.552737 0.018898 0.654044 0.3382677 0.06822 0.2154331-0.02872 0.5873764-0.282898 1.0872567-0.29726 0.5842016-0.874636 1.4853921-1.411605 2.2032375-0.152466 0.203717-0.280554 0.377953-0.284636 0.386949-0.0042 0.0076 0.0788-0.03402 0.184214-0.09865 0.469467-0.282331 0.854982-0.298961 1.138874-0.04989 0.166186 0.145889 0.229266 0.385965 0.145172 0.552377-0.126501 0.250583-0.345978 0.333355-0.985474 0.371906-0.468877 0.02646-0.799087 0.08731-1.128696 0.202205-0.541077 0.18822-0.963617 0.454752-1.378813 0.869367-0.337587 0.337133-0.514987 0.594633-0.89543 1.299893-0.4244527 0.786822-0.5929629 1.038538-0.928619 1.387124-0.2323653 0.241134-0.4461959 0.403162-0.6195892 0.469039-0.161537 0.06123-0.3628347 0.07559-0.4893997 0.03402z" style="fill:#808080"/>
</svg>

<svg xmlns="http://www.w3.org/2000/svg" width="16.015" height="16.079" version="1.1">
 <path d="M 8.2034999,15.554319 C 7.8200139,15.429217 7.6786747,15.154521 7.4558791,14.100713 7.3302476,13.506533 7.0728996,13.174086 6.5904807,12.982918 6.3075453,12.870666 6.1672152,12.851012 5.1305135,12.778445 4.1967019,12.712685 3.7597658,12.478729 3.4551435,11.880845 3.3361261,11.64727 3.2437925,11.340864 3.1126805,10.744304 2.9465705,9.9884735 2.7930835,9.5996735 2.4668345,9.1079948 2.2645925,8.8033649 1.8071825,8.3415822 1.4836925,8.1157554 1.1753215,7.9003224 1.1008685,7.8334247 1.0425195,7.7191696 c -0.0748,-0.1466456 -0.05053,-0.2845984 0.06981,-0.3968882 0.242835,-0.2263937 0.587671,-0.1557165 0.843099,0.1727244 0.04362,0.055937 0.150237,0.2294174 0.236939,0.3852851 0.158249,0.2842204 0.329159,0.5311748 0.367861,0.5311748 0.01172,0 0.02079,-0.4028977 0.02079,-0.9096189 0,-0.9759496 0.0053,-1.0248189 0.120794,-1.1057008 0.09037,-0.063496 0.219213,-0.049512 0.313966,0.034016 0.161537,0.1417323 0.179149,0.2460472 0.3688058,2.1822236 0.040441,0.4128377 0.031748,0.3983622 0.1551874,0.2626771 C 3.6579579,8.7450468 3.7886918,8.4866027 3.8338193,8.2935822 3.8769813,8.1091413 3.8674573,7.8190247 3.8107643,7.5853743 3.7524463,7.3457523 3.7495733,7.25202 3.7975363,7.1511822 c 0.098419,-0.207496 0.3723969,-0.2022047 0.5192807,0.011339 0.1000063,0.144378 0.1363653,0.2762835 0.1478551,0.5371465 0.015496,0.3507401 -0.036661,0.5975811 -0.2901543,1.3745763 -0.273789,0.8390551 -0.3049701,0.974098 -0.3052725,1.322003 -2.192e-4,0.218457 0.010583,0.306142 0.054803,0.448516 0.223748,0.719774 0.9034885,1.160466 1.9857713,1.287383 0.3075023,0.0378 0.4486752,0.04309 0.4486752,0.02268 0,-0.0076 -0.053631,-0.107338 -0.1191685,-0.223748 C 5.8381393,11.219428 5.6716625,10.68693 5.704567,10.220612 5.7238426,9.9499979 5.7753198,9.7612861 5.9635781,9.2750877 6.251956,8.5302184 6.2950048,8.348461 6.2961765,7.8704641 6.2986332,6.8495381 5.7733431,5.8838311 4.9357545,5.3695886 4.841871,5.3121397 4.5632064,5.1734311 4.3164864,5.0615571 3.8046326,4.829872 3.5706912,4.6877618 3.3845305,4.495535 3.1629365,4.2668736 3.0299355,3.9814437 3.0299355,3.7349807 c 0,-0.1114961 0.04819,-0.1405984 0.259162,-0.1557165 0.3848768,-0.026457 0.719297,0.1466456 1.2955955,0.6750992 0.363704,0.3333543 0.5324183,0.4606866 0.7440605,0.5611842 0.1999748,0.094866 0.4947326,0.152315 0.5415307,0.1058268 0.01663,-0.015118 0.027969,-0.1016693 0.027969,-0.2101417 0,-0.2502048 -0.089839,-0.4347213 -0.3142677,-0.6447874 C 5.4334842,3.9254689 5.3251252,3.8547917 4.8621217,3.5955917 4.3906672,3.3314028 4.1527535,2.9599886 4.2126175,2.5812799 c 0.03515,-0.22337 0.1901102,-0.3775748 0.4150903,-0.4135559 0.6270123,-0.1001574 1.5733455,0.9673323 1.9997783,2.256 0.2251086,0.6802394 0.3052346,1.2148913 0.3060283,2.0420031 7.257e-4,0.7653921 -0.062967,1.3390866 -0.2595023,2.3370709 -0.078652,0.399496 -0.103937,0.5780409 -0.09566,0.6757417 0.03137,0.368126 0.2445732,0.4651086 0.554109,0.2520945 C 7.5000202,9.4777838 7.8618344,9.0147917 8.0107251,8.6068295 8.1292511,8.282168 8.1568416,8.092398 8.174492,7.4807948 8.189232,6.9701807 8.195657,6.9048704 8.240294,6.8197933 8.303677,6.6988484 8.3858814,6.6225019 8.493031,6.5858405 8.6135601,6.5442655 8.7118279,6.5669425 8.7990972,6.6534945 8.9938184,6.8481402 8.977831,7.201526 8.7304232,8.1688961 8.5837776,8.7423638 8.3635823,9.2438315 8.1061133,9.5907921 8.0326393,9.6898161 7.8102141,9.9249024 7.6118154,10.113085 c -0.4249361,0.403238 -0.5606438,0.566249 -0.680674,0.817626 -0.085833,0.179905 -0.088668,0.19389 -0.088668,0.445342 0,0.239622 0.00491,0.267968 0.063609,0.367748 0.2658142,0.452144 0.9439937,0.573052 1.4376227,0.256252 C 8.8976938,11.644399 9.3669221,10.349911 9.5709788,8.6138599 9.7156213,7.3832079 9.6197348,6.5292237 9.2502103,5.7574442 8.9989468,5.2326563 8.6691301,4.8663067 8.0511509,4.4256516 7.8459982,4.2793839 7.6104505,4.102124 7.5276864,4.0320516 7.3339478,3.8676421 7.1168215,3.5787728 7.0310754,3.371239 6.9727954,3.2302626 6.9633844,3.1754595 6.9620234,2.9718185 L 6.9604834,2.735598 7.0658189,2.682685 c 0.2733354,-0.1379528 0.6832705,0.00314 1.0159974,0.3492283 0.071395,0.074457 0.2194016,0.2823307 0.3288567,0.4623496 0.3263622,0.5366929 0.5185663,0.7710236 0.7164813,0.8735622 l 0.06565,0.034016 -0.1045418,-0.207496 C 9.0307745,4.0802028 8.7937979,3.6203098 8.561682,3.1723602 7.9865891,2.0625398 7.9641613,2.0085681 7.9639232,1.7344012 7.963704,1.464543 8.1299201,1.283806 8.3785752,1.283806 c 0.2245039,0 0.426119,0.1576063 0.5550085,0.4338141 0.037039,0.07937 0.1961575,0.5907024 0.3534236,1.1360504 0.1573039,0.5453102 0.3581102,1.2408567 0.4462488,1.5456378 L 9.8935081,4.9534626 9.96445,4.8124862 C 10.129691,4.4840453 10.255587,4.0136075 10.302226,3.550124 10.347656,3.0985083 10.301316,2.6812106 10.125231,1.9566752 9.993136,1.4131036 9.984368,1.3488516 10.017439,1.166376 10.088418,0.77496822 10.326,0.55760762 10.656928,0.58130522 c 0.410445,0.030236 0.716552,0.3613228 0.775717,0.84154958 0.05684,0.4614047 -0.05352,0.9476031 -0.488216,2.1508913 -0.389091,1.0769763 -0.506238,1.4477858 -0.592918,1.8767621 -0.1457,0.7210583 -0.123968,1.4108977 0.06127,1.9447181 l 0.04407,0.1269921 0.266722,-0.7525795 c 0.146683,-0.4139338 0.294274,-0.8091212 0.327987,-0.8782488 0.126614,-0.2596535 0.340233,-0.3076535 0.518725,-0.1164094 0.08655,0.092598 0.104202,0.1938897 0.06248,0.3582992 -0.128504,0.5059653 -0.793308,2.4126236 -1.8599022,5.3341611 -0.5019817,1.375029 -0.5065587,1.38924 -0.4205782,1.307754 0.047811,-0.04535 0.7455494,-0.682129 1.5505474,-1.415169 0.804994,-0.733001 1.523456,-1.398954 1.596582,-1.4798359 C 12.71772,9.6386783 12.850003,9.3431948 12.849701,9.0976389 12.849357,8.817198 12.723276,8.4866405 12.407081,7.9375885 12.018749,7.263283 11.915632,6.912694 12.010071,6.5878437 c 0.06561,-0.2256378 0.269783,-0.3948851 0.474414,-0.3931843 0.08557,6.047e-4 0.235125,0.084661 0.317443,0.1783937 0.102841,0.1171654 0.300888,0.5354079 0.412547,0.8712945 0.08852,0.2664567 0.202507,0.7754078 0.202507,0.9045543 0,0.039685 0.0083,0.07748 0.01814,0.083528 0.01021,0.00756 0.184933,-0.3197481 0.388744,-0.7245355 0.391789,-0.7779779 0.484754,-0.9189165 0.662872,-1.0051653 0.267288,-0.1292598 0.552737,0.018898 0.654044,0.3382677 0.06822,0.2154331 -0.02872,0.5873764 -0.282898,1.0872567 -0.29726,0.5842016 -0.874636,1.4853921 -1.411605,2.2032375 -0.152466,0.203717 -0.280554,0.377953 -0.284636,0.386949 -0.0042,0.0076 0.0788,-0.03402 0.184214,-0.09865 0.469467,-0.282331 0.854982,-0.298961 1.138874,-0.04989 0.166186,0.145889 0.229266,0.385965 0.145172,0.552377 -0.126501,0.250583 -0.345978,0.333355 -0.985474,0.371906 -0.468877,0.02646 -0.799087,0.08731 -1.128696,0.202205 -0.541077,0.18822 -0.963617,0.454752 -1.378813,0.869367 -0.337587,0.337133 -0.514987,0.594633 -0.89543,1.299893 -0.4244527,0.786822 -0.5929629,1.038538 -0.928619,1.387124 -0.2323653,0.241134 -0.4461959,0.403162 -0.6195892,0.469039 -0.161537,0.06123 -0.3628347,0.07559 -0.4893997,0.03402 z" style="fill:#808080"/>
</svg>
